;START_OF_HEADER
;HEADER_VERSION:0.1
;FLAVOR:Griffin
;GENERATOR.NAME:Cura_SteamEngine
;GENERATOR.VERSION:5.10.1
;GENERATOR.BUILD_DATE:2025-06-03
;TARGET_MACHINE.NAME:Ultimaker S5
;EXTRUDER_TRAIN.0.INITIAL_TEMPERATURE:205
;EXTRUDER_TRAIN.0.MATERIAL.VOLUME_USED:98
;EXTRUDER_TRAIN.0.MATERIAL.GUID:3ee70a86-77d8-4b87-8005-e4a1bc57d2ce
;EXTRUDER_TRAIN.0.NOZZLE.DIAMETER:0.4
;EXTRUDER_TRAIN.0.NOZZLE.NAME:AA 0.4
;BUILD_PLATE.INITIAL_TEMPERATURE:60
;BUILD_VOLUME.TEMPERATURE:28
;PRINT.TIME:121
;PRINT.GROUPS:1
;PRINT.SIZE.MIN.X:155.946
;PRINT.SIZE.MIN.Y:110.344
;PRINT.SIZE.MIN.Z:0.2
;PRINT.SIZE.MAX.X:330
;PRINT.SIZE.MAX.Y:237
;PRINT.SIZE.MAX.Z:20.001
;SLICE_UUID:3b6e60df-1af6-4f93-9cb7-7bdb0b59d9ee
;END_OF_HEADER
;Generated with Cura_SteamEngine 5.10.1
T0

M82 ;absolute extrusion mode
G92 E0
M190 S60
M104 S205
M109 S205
G280 S1
G0 Z20.001
G1 F2700 E-6.5
;LAYER_COUNT:20
G0 F9000 X330 Y237
;LAYER:0
M106 S255
M204 S1500
M205 X30 Y30
G1 F600 Z2.2
G0 F9000 X173.349 Y126.004 Z2.2
;TYPE:SKIRT
G1 F600 Z0.2
G1 F2700 E0
G1 F1800 X170.788 Y128.733 E0.04693
G1 X167.706 Y129.655 E0.08727
G1 X162.125 Y129.655 E0.15726
G1 X159.964 Y129.061 E0.18537
G1 X157.839 Y127.432 E0.21894
G1 X156.458 Y125.317 E0.25062
G1 X155.946 Y123.125 E0.27885
G1 X155.946 Y116.158 E0.36622
G1 X156.795 Y113.931 E0.39611
G1 X158.307 Y112.156 E0.42535
G1 X160.288 Y110.854 E0.45507
G1 X162.472 Y110.344 E0.4832
G1 X168.24 Y110.344 E0.55553
G1 X170.467 Y111.193 E0.58542
G1 X172.242 Y112.705 E0.61466
G1 X173.544 Y114.686 E0.64439
G1 X174.054 Y116.87 E0.67251
G1 X174.054 Y123.547 E0.75624
G1 X173.349 Y126.004 E0.7883
G0 F9000 X172.992 Y125.799
G1 F1800 X170.569 Y128.382 E0.83271
G1 X167.648 Y129.255 E0.87094
G1 X162.18 Y129.255 E0.93951
G1 X160.143 Y128.695 E0.96601
G1 X158.138 Y127.158 E0.99769
G1 X156.832 Y125.158 E1.02764
G1 X156.346 Y123.077 E1.05444
G1 X156.346 Y116.233 E1.14027
G1 X157.146 Y114.135 E1.16843
G1 X158.573 Y112.46 E1.19602
G1 X160.447 Y111.228 E1.22414
G1 X162.52 Y110.744 E1.25084
G1 X168.165 Y110.744 E1.32163
G1 X170.263 Y111.544 E1.34979
G1 X171.938 Y112.971 E1.37738
G1 X173.17 Y114.845 E1.40551
G1 X173.654 Y116.918 E1.4322
G1 X173.654 Y123.493 E1.51465
G1 X172.992 Y125.799 E1.54474
G0 F9000 X172.635 Y125.594
G1 F1800 X170.351 Y128.031 E1.58662
G1 X167.591 Y128.855 E1.62275
G1 X162.235 Y128.855 E1.68991
G1 X160.322 Y128.329 E1.71479
G1 X158.437 Y126.884 E1.74458
G1 X157.206 Y124.999 E1.77281
G1 X156.746 Y123.029 E1.79818
G1 X156.746 Y116.308 E1.88246
G1 X157.496 Y114.341 E1.90886
G1 X158.841 Y112.762 E1.93487
G1 X160.606 Y111.602 E1.96136
G1 X162.568 Y111.144 E1.98663
G1 X168.09 Y111.144 E2.05587
G1 X170.057 Y111.894 E2.08227
G1 X171.636 Y113.239 E2.10828
G1 X172.796 Y115.004 E2.13477
G1 X173.254 Y116.966 E2.16004
G1 X173.254 Y123.439 E2.24121
G1 X172.635 Y125.594 E2.26933
G0 F9000 X172.277 Y125.391
G1 F1800 X170.134 Y127.68 E2.30865
G1 X167.534 Y128.455 E2.34267
G1 X162.29 Y128.455 E2.40843
G1 X160.501 Y127.963 E2.4317
G1 X158.736 Y126.61 E2.45959
G1 X157.58 Y124.84 E2.4861
G1 X157.146 Y122.981 E2.51004
G1 X157.146 Y116.383 E2.59278
G1 X157.847 Y114.545 E2.61745
G1 X159.107 Y113.066 E2.64181
G1 X160.765 Y111.976 E2.6667
G1 X162.616 Y111.544 E2.69053
G1 X168.015 Y111.544 E2.75824
G1 X169.853 Y112.245 E2.78291
G1 X171.332 Y113.505 E2.80727
G1 X172.422 Y115.163 E2.83216
G1 X172.854 Y117.014 E2.85599
G1 X172.854 Y123.384 E2.93587
G1 X172.277 Y125.391 E2.96206
G0 F9000 X171.92 Y125.188
G1 F1800 X169.917 Y127.328 E2.99882
G1 X167.477 Y128.055 E3.03075
G1 X162.345 Y128.055 E3.0951
G1 X160.68 Y127.597 E3.11676
G1 X159.035 Y126.336 E3.14275
G1 X157.953 Y124.678 E3.16758
G1 X157.546 Y122.937 E3.19
G1 X157.546 Y116.458 E3.27125
G1 X158.197 Y114.751 E3.29416
G1 X159.375 Y113.368 E3.31694
G1 X160.924 Y112.35 E3.34019
G1 X162.664 Y111.944 E3.36259
G1 X167.94 Y111.944 E3.42876
G1 X169.647 Y112.595 E3.45167
G1 X171.03 Y113.773 E3.47445
G1 X172.048 Y115.322 E3.49769
G1 X172.454 Y117.062 E3.5201
G1 X172.454 Y123.33 E3.5987
G1 X171.92 Y125.188 E3.62295
G0 F9000 X171.563 Y124.985
G1 F1800 X169.7 Y126.976 E3.65714
G1 X167.42 Y127.655 E3.68697
G1 X162.4 Y127.655 E3.74992
G1 X160.859 Y127.231 E3.76997
G1 X159.334 Y126.062 E3.79406
G1 X158.327 Y124.519 E3.81717
G1 X157.946 Y122.889 E3.83816
G1 X157.946 Y116.533 E3.91787
G1 X158.548 Y114.955 E3.93905
G1 X159.641 Y113.672 E3.96018
G1 X161.083 Y112.724 E3.98183
G1 X162.712 Y112.344 E4.0028
G1 X167.865 Y112.344 E4.06742
G1 X169.443 Y112.946 E4.0886
G1 X170.726 Y114.039 E4.10974
G1 X171.674 Y115.481 E4.13138
G1 X172.054 Y117.11 E4.15236
G1 X172.054 Y123.276 E4.22968
G1 X171.563 Y124.985 E4.25198
G0 F9000 X171.206 Y124.782
G1 F1800 X169.483 Y126.624 E4.28361
G1 X167.363 Y127.255 E4.31135
G1 X162.455 Y127.255 E4.37289
G1 X161.038 Y126.865 E4.39133
G1 X159.633 Y125.788 E4.41353
G1 X158.701 Y124.36 E4.43491
G1 X158.346 Y122.841 E4.45447
G1 X158.346 Y116.608 E4.53264
G1 X158.898 Y115.161 E4.55206
G1 X159.909 Y113.974 E4.57161
G1 X161.242 Y113.098 E4.59161
G1 X162.76 Y112.744 E4.61116
G1 X167.79 Y112.744 E4.67424
G1 X169.237 Y113.296 E4.69366
G1 X170.424 Y114.307 E4.71321
G1 X171.3 Y115.64 E4.73322
G1 X171.654 Y117.158 E4.75276
G1 X171.654 Y123.222 E4.82881
G1 X171.206 Y124.782 E4.84916
G0 F9000 X170.849 Y124.579
G1 F1800 X169.266 Y126.272 E4.87823
G1 X167.306 Y126.855 E4.90387
G1 X162.51 Y126.855 E4.96401
G1 X161.217 Y126.499 E4.98083
G1 X159.932 Y125.514 E5.00114
G1 X159.075 Y124.201 E5.0208
G1 X158.746 Y122.793 E5.03893
G1 X158.746 Y116.683 E5.11555
G1 X159.249 Y115.365 E5.13324
G1 X160.175 Y114.278 E5.15115
G1 X161.401 Y113.472 E5.16955
G1 X162.808 Y113.144 E5.18767
G1 X167.715 Y113.144 E5.2492
G1 X169.033 Y113.647 E5.26689
G1 X170.12 Y114.573 E5.2848
G1 X170.926 Y115.799 E5.3032
G1 X171.254 Y117.206 E5.32132
G1 X171.254 Y123.168 E5.39608
G1 X170.849 Y124.579 E5.41449
G0 F9000 X170.492 Y124.376
G1 F1800 X169.049 Y125.92 E5.44099
G1 X167.249 Y126.455 E5.46454
G1 X162.565 Y126.455 E5.52328
G1 X161.396 Y126.133 E5.53849
G1 X160.231 Y125.24 E5.5569
G1 X159.449 Y124.042 E5.57484
G1 X159.146 Y122.745 E5.59154
G1 X159.146 Y116.758 E5.66662
G1 X159.599 Y115.571 E5.68255
G1 X160.443 Y114.58 E5.69887
G1 X161.56 Y113.846 E5.71564
G1 X162.856 Y113.544 E5.73232
G1 X167.64 Y113.544 E5.79232
G1 X168.827 Y113.997 E5.80825
G1 X169.818 Y114.841 E5.82457
G1 X170.552 Y115.958 E5.84133
G1 X170.854 Y117.254 E5.85802
G1 X170.854 Y123.114 E5.93151
G1 X170.492 Y124.376 E5.94797
G0 F9000 X170.135 Y124.171
G1 F1800 X168.832 Y125.568 E5.97193
G1 X167.192 Y126.055 E5.99338
G1 X162.62 Y126.055 E6.05072
G1 X161.575 Y125.767 E6.06431
G1 X160.53 Y124.966 E6.08082
G1 X159.823 Y123.883 E6.09704
G1 X159.546 Y122.697 E6.11231
G1 X159.546 Y116.833 E6.18585
G1 X159.949 Y115.777 E6.20003
G1 X160.711 Y114.882 E6.21477
G1 X161.719 Y114.22 E6.22989
G1 X162.904 Y113.944 E6.24515
G1 X167.565 Y113.944 E6.3036
G1 X168.621 Y114.347 E6.31777
G1 X169.516 Y115.109 E6.33251
G1 X170.178 Y116.117 E6.34764
G1 X170.454 Y117.302 E6.36289
G1 X170.454 Y123.06 E6.4351
G1 X170.135 Y124.171 E6.4496
G0 F9000 X169.777 Y123.968
G1 F1800 X168.615 Y125.216 E6.47098
G1 X167.135 Y125.655 E6.49034
G1 X162.675 Y125.655 E6.54627
G1 X161.754 Y125.401 E6.55825
G1 X160.829 Y124.692 E6.57287
G1 X160.197 Y123.724 E6.58736
G1 X159.946 Y122.649 E6.60121
G1 X159.946 Y116.908 E6.6732
G1 X160.299 Y115.983 E6.68562
G1 X160.98 Y115.183 E6.69879
G1 X161.876 Y114.595 E6.71223
G1 X162.952 Y114.344 E6.72609
G1 X167.49 Y114.344 E6.783
G1 X168.415 Y114.697 E6.79541
G1 X169.215 Y115.378 E6.80859
G1 X169.803 Y116.274 E6.82203
G1 X170.054 Y117.35 E6.83588
G1 X170.054 Y123.002 E6.90676
G1 X169.777 Y123.968 E6.91936
G0 F9000 X169.418 Y123.767
G1 F1800 X168.397 Y124.865 E6.93816
G1 X167.076 Y125.255 E6.95544
G1 X162.731 Y125.255 E7.00992
G1 X161.935 Y125.035 E7.02028
G1 X161.127 Y124.416 E7.03305
G1 X160.571 Y123.565 E7.04579
G1 X160.346 Y122.601 E7.05821
G1 X160.346 Y116.983 E7.12866
G1 X160.649 Y116.189 E7.13932
G1 X161.247 Y115.486 E7.15089
G1 X162.036 Y114.969 E7.16272
G1 X163 Y114.744 E7.17513
G1 X167.415 Y114.744 E7.2305
G1 X168.209 Y115.047 E7.24116
G1 X168.912 Y115.645 E7.25273
G1 X169.429 Y116.434 E7.26456
G1 X169.654 Y117.398 E7.27697
G1 X169.654 Y122.944 E7.34652
G1 X169.418 Y123.767 E7.35726
G0 F9000 X169.059 Y123.566
G1 F1800 X168.179 Y124.514 E7.37348
G1 X167.017 Y124.855 E7.38867
G1 X162.731 Y124.855 E7.44241
G1 X162.178 Y124.717 E7.44956
G1 X161.425 Y124.14 E7.46146
G1 X160.945 Y123.406 E7.47246
G1 X160.746 Y122.553 E7.48344
G1 X160.746 Y117.058 E7.55235
G1 X160.999 Y116.395 E7.56125
G1 X161.514 Y115.789 E7.57122
G1 X162.195 Y115.343 E7.58143
G1 X163.048 Y115.144 E7.59241
G1 X167.34 Y115.144 E7.64624
G1 X168.003 Y115.397 E7.65514
G1 X168.609 Y115.912 E7.66511
G1 X169.055 Y116.593 E7.67532
G1 X169.254 Y117.446 E7.6863
G1 X169.254 Y122.886 E7.75452
G1 X169.059 Y123.566 E7.76339
G0 F9000 X168.701 Y123.364
G1 F1800 X167.961 Y124.163 E7.77705
G1 X166.96 Y124.455 E7.79013
G1 X162.731 Y124.455 E7.84316
G1 X162.356 Y124.349 E7.84805
G1 X161.723 Y123.864 E7.85805
G1 X161.319 Y123.247 E7.86729
G1 X161.146 Y122.505 E7.87685
G1 X161.146 Y117.058 E7.94516
G1 X161.31 Y116.647 E7.95071
G1 X161.733 Y116.124 E7.95914
G1 X162.354 Y115.717 E7.96845
G1 X163.096 Y115.544 E7.97801
G1 X167.34 Y115.544 E8.03123
G1 X167.751 Y115.708 E8.03678
G1 X168.274 Y116.131 E8.04521
G1 X168.681 Y116.752 E8.05452
G1 X168.854 Y117.494 E8.06408
G1 X168.854 Y122.886 E8.1317
G1 X168.701 Y123.364 E8.13799
G0 F9000 X168.407 Y123.093
G1 F1800 X167.743 Y123.812 E8.15026
G1 X166.904 Y124.055 E8.16122
G1 X162.731 Y124.055 E8.21355
G1 X162.486 Y123.971 E8.2168
G1 X162.049 Y123.633 E8.22372
G1 X161.707 Y123.15 E8.23115
G1 X161.546 Y122.505 E8.23948
G1 X161.546 Y117.133 E8.30685
G1 X161.628 Y116.89 E8.31007
G1 X161.965 Y116.45 E8.31702
G1 X162.451 Y116.105 E8.32449
G1 X163.096 Y115.944 E8.33283
G1 X167.265 Y115.944 E8.38511
G1 X167.508 Y116.026 E8.38832
G1 X167.948 Y116.363 E8.39527
G1 X168.293 Y116.849 E8.40275
G1 X168.454 Y117.494 E8.41108
G1 X168.454 Y122.886 E8.4787
G1 X168.407 Y123.093 E8.48136
G0 F9000 X168.054 Y122.886
M104 S195
G1 F1800 X167.523 Y123.461 E8.49118
G1 X166.904 Y123.655 E8.49931
G1 X162.731 Y123.655 E8.55165
G1 X162.294 Y123.317 E8.55857
G1 X162.093 Y123.045 E8.56281
G1 X161.946 Y122.505 E8.56983
G1 X161.946 Y117.133 E8.6372
G1 X162.283 Y116.693 E8.64415
G1 X162.556 Y116.491 E8.64841
G1 X163.096 Y116.344 E8.65543
G1 X167.265 Y116.344 E8.70771
G1 X167.705 Y116.681 E8.71466
G1 X167.907 Y116.954 E8.71892
G1 X168.054 Y117.494 E8.72593
G1 X168.054 Y122.886 E8.79355
G0 F9000 X167.254 Y122.622
G1 F1800 X167.105 Y122.791 E8.79638
G1 X166.904 Y122.855 E8.79902
G1 X162.979 Y122.855 E8.84824
G1 X162.81 Y122.706 E8.85107
G1 X162.746 Y122.505 E8.85371
G1 X162.746 Y117.377 E8.91802
G1 X162.895 Y117.208 E8.92085
G1 X163.096 Y117.144 E8.92349
G1 X167.021 Y117.144 E8.97271
G1 X167.19 Y117.293 E8.97554
G1 X167.254 Y117.494 E8.97818
G1 X167.254 Y122.622 E9.04249
G0 F9000 X167.654 Y122.755
G1 F1800 X167.261 Y123.159 E9.04956
G1 X166.904 Y123.255 E9.0542
G1 X162.854 Y123.255 E9.10498
G1 X162.545 Y123.006 E9.10996
G1 X162.429 Y122.827 E9.11264
G1 X162.346 Y122.505 E9.11681
G1 X162.346 Y117.254 E9.18265
G1 X162.595 Y116.943 E9.18765
G1 X162.774 Y116.827 E9.19033
G1 X163.096 Y116.744 E9.1945
G1 X167.144 Y116.744 E9.24526
G1 X167.455 Y116.993 E9.25025
G1 X167.571 Y117.172 E9.25293
G1 X167.654 Y117.494 E9.2571
G1 X167.654 Y122.755 E9.32307
;MESH:testePorca.stl
G0 F9000 X166.704 Y121.093
;TYPE:WALL-OUTER
G1 F1800 X166.04 Y121.472 E9.33362
G1 F1887.9 X165.139 Y121.967 E9.3472
G1 F1966.3 X164.855 Y121.97 E9.35081
G1 F1871.8 X163.296 Y121.096 E9.37461
G1 F1800 X163.296 Y122.304 E9.39127
G1 F1871.8 X164.763 Y122.318 E9.4108
G1 F2020 X164.948 Y122.33 E9.4131
G1 F2013.9 X166.704 Y122.295 E9.43497
G1 F1866.5 X166.704 Y121.093 E9.45101
G0 F9000 X166.04 Y121.472
G0 X166.01 Y121.488
G0 X166.684 Y118.313
G1 F1615.9 X166.684 Y117.712 E9.46015
G1 X165.631 Y117.712 E9.47616
G1 X166.684 Y118.313 E9.4946
G0 F9000 X166.684 Y117.712
G0 X166.485 Y117.712
G0 X165.048 Y117.562
G1 F2149.4 X164.936 Y117.562 E9.49591
G0 F9000 X163.316 Y118.311
G1 F1624.1 X164.367 Y117.712 E9.51423
G1 X163.316 Y117.712 E9.53014
G1 X163.316 Y118.311 E9.53921
G0 F9000 X164.01 Y117.915
G0 X163.801 Y121.86
;TYPE:WALL-INNER
G1 F1443 X163.709 Y121.807 E9.54091
G1 X163.71 Y121.913 E9.5426
G1 X163.801 Y121.86 E9.54428
G0 F9000 X166.32 Y121.859
G1 F1436.3 X166.228 Y121.806 E9.54599
G1 X166.229 Y121.912 E9.54769
G1 X166.32 Y121.859 E9.54938
;MESH:NONMESH
G0 F600 X166.32 Y121.859 Z0.4
G0 F9000 X166.878 Y120.75
;TIME_ELAPSED:33.057033
;LAYER:1
;note -- min layer time used
;TYPE:WALL-OUTER
;MESH:testePorca.stl
G1 F429.9 X166.878 Y118.708 E9.57115
G0 F9000 X166.724 Y118.381
G1 F268.6 X166.724 Y117.672 E9.58271
G1 X165.483 Y117.672 E9.60294
G1 X166.724 Y118.381 E9.62624
G0 F9000 X166.724 Y117.672
G0 X166.633 Y117.672
G0 X166.504 Y117.894
G0 X165 Y117.554
G1 F429.9 X164.976 Y117.555 E9.62649
G0 F9000 X163.932 Y117.829
G0 X163.276 Y118.378
G1 F268.6 X164.517 Y117.672 E9.64977
G1 X163.276 Y117.672 E9.67
G1 X163.276 Y118.378 E9.68151
G0 F9000 X163.971 Y117.983
G0 X163.849 Y117.874
G0 X163.12 Y118.708
G1 F429.9 X163.12 Y120.732 E9.70308
G0 F9000 X165.094 Y122.17
G0 X165.052 Y121.953
G1 F350.3 X164.898 Y121.922 E9.7051
G1 F356.1 X163.999 Y121.405 E9.71824
G1 F380.8 X163.15 Y120.838 E9.7304
G1 F393.3 X163.25 Y122.384 E9.74832
G1 F359 X165.073 Y122.373 E9.77124
G1 F356.1 X166.749 Y122.384 E9.79247
G1 F375.4 X166.853 Y120.837 E9.81119
G1 F368.1 X166 Y121.403 E9.82377
M205 X50 Y50
G1 F354.1 X165.052 Y121.953 E9.83772
M204 S3500
G0 F9000 X164.898 Y121.922
G0 X164.341 Y121.602
G0 X163.821 Y121.86
;TYPE:WALL-INNER
G1 F208.4 X163.699 Y121.79 E9.84086
G1 X163.7 Y121.93 E9.84399
G1 X163.821 Y121.86 E9.84711
G0 F9000 X164.906 Y122.17
G0 X166.34 Y121.859
M205 X30 Y30
G1 F207.7 X166.218 Y121.789 E9.85027
G1 X166.219 Y121.929 E9.8534
G1 X166.34 Y121.859 E9.85654
M204 S1500
;MESH:NONMESH
G0 F600 X166.34 Y121.859 Z0.6
G0 F9000 X166.878 Y120.75
;TIME_ELAPSED:37.732576
;LAYER:2
;note -- min layer time used
;TYPE:WALL-OUTER
;MESH:testePorca.stl
G1 F429.9 X166.878 Y118.708 E9.8783
G0 F9000 X166.724 Y118.381
G1 F268.6 X166.724 Y117.672 E9.88986
G1 X165.483 Y117.672 E9.91009
G1 X166.724 Y118.381 E9.93339
G0 F9000 X166.724 Y117.672
G0 X166.633 Y117.672
G0 X166.504 Y117.894
G0 X165 Y117.554
G1 F429.9 X164.976 Y117.555 E9.93365
G0 F9000 X163.932 Y117.829
G0 X163.276 Y118.378
G1 F268.6 X164.517 Y117.672 E9.95693
G1 X163.276 Y117.672 E9.97716
G1 X163.276 Y118.378 E9.98867
G0 F9000 X163.971 Y117.983
G0 X163.849 Y117.874
G0 X163.12 Y118.708
G1 F429.9 X163.12 Y120.732 E10.01024
G0 F9000 X165.094 Y122.17
G0 X165.052 Y121.953
G1 F350.3 X164.898 Y121.922 E10.01226
G1 F356.1 X163.999 Y121.405 E10.0254
G1 F380.8 X163.15 Y120.838 E10.03756
G1 F393.3 X163.25 Y122.384 E10.05548
G1 F359 X165.073 Y122.373 E10.0784
G1 F356.1 X166.749 Y122.384 E10.09963
G1 F375.4 X166.853 Y120.837 E10.11834
G1 F368.1 X166 Y121.403 E10.13092
M205 X50 Y50
G1 F354.1 X165.052 Y121.953 E10.14487
M204 S3500
G0 F9000 X164.898 Y121.922
G0 X164.341 Y121.602
G0 X163.821 Y121.86
;TYPE:WALL-INNER
G1 F208.4 X163.699 Y121.79 E10.14802
G1 X163.7 Y121.93 E10.15115
G1 X163.821 Y121.86 E10.15427
G0 F9000 X164.906 Y122.17
G0 X166.34 Y121.859
M205 X30 Y30
G1 F207.7 X166.218 Y121.789 E10.15742
G1 X166.219 Y121.929 E10.16056
G1 X166.34 Y121.859 E10.16369
M204 S1500
;MESH:NONMESH
G0 F600 X166.34 Y121.859 Z0.8
G0 F9000 X166.878 Y120.75
;TIME_ELAPSED:42.408118
;LAYER:3
;note -- min layer time used
;TYPE:WALL-OUTER
;MESH:testePorca.stl
